Sources/FrostedUI/Resources/Icons.xcassets/upinTilted20.imageset/upin-tilted-20.svg

<svg width="20" height="20" viewBox="0 0 20 20" fill="none" xmlns="http://www.w3.org/2000/svg" data-fui-icon="true">
  <path
    d="M1.21973 1.21973C1.51262 0.926834 1.98738 0.926833 2.28027 1.21973L18.7803 17.7197C19.0731 18.0126 19.0731 18.4874 18.7803 18.7803C18.4874 19.0731 18.0126 19.0731 17.7197 18.7803L14.1529 15.2134C13.9928 15.0534 13.72 15.1214 13.6538 15.3379L13.4043 16.1543C12.8403 17.992 10.5225 18.5683 9.16309 17.209L6.71893 14.7648C6.60179 14.6477 6.41187 14.6477 6.2947 14.7648L3.63379 17.4248C3.34091 17.7177 2.86614 17.7177 2.57324 17.4248C2.28051 17.1319 2.2804 16.6571 2.57324 16.3643L5.23322 13.7043C5.35036 13.5871 5.35038 13.3972 5.23326 13.2801L2.78906 10.835C1.43001 9.47541 2.00679 7.15746 3.84473 6.59375L4.65997 6.34357C4.87619 6.27722 4.94402 6.00456 4.78409 5.84464L1.21973 2.28027C0.926833 1.98738 0.926833 1.51262 1.21973 1.21973ZM4.28418 8.02832C3.52756 8.26046 3.29029 9.21459 3.84961 9.77441L10.2236 16.1484C10.7834 16.7081 11.7376 16.4707 11.9697 15.7139L12.5467 13.8327C12.5793 13.7265 12.5505 13.6111 12.472 13.5326L6.46548 7.52603C6.38697 7.44752 6.27153 7.41879 6.16538 7.45135L4.28418 8.02832ZM10.5371 2.38965C11.5328 1.3948 13.1469 1.39472 14.1426 2.38965L17.6084 5.85547C18.6036 6.85108 18.6033 8.46517 17.6084 9.46094L15.3274 11.742C15.2102 11.8591 15.0203 11.8591 14.9031 11.742L14.2659 11.1048C14.1487 10.9876 14.1488 10.7976 14.266 10.6804L16.5479 8.40039C16.957 7.99041 16.9572 7.32584 16.5479 6.91602L13.082 3.45117C12.6721 3.04149 12.0077 3.04169 11.5977 3.45117L9.31662 5.73131C9.19946 5.84843 9.00954 5.84841 8.8924 5.73127L8.25608 5.09494C8.13892 4.97779 8.13892 4.78784 8.25608 4.67068L10.5371 2.38965Z"
    fill="currentColor"
  />
</svg>

<svg xmlns="http://www.w3.org/2000/svg" width="20" height="20" fill="none" data-fui-icon="true" viewBox="0 0 20 20"><path fill="currentColor" d="M1.22 1.22a.75.75 0 0 1 1.06 0l16.5 16.5a.75.75 0 0 1-1.06 1.06l-3.567-3.567a.3.3 0 0 0-.5.125l-.249.816c-.564 1.838-2.881 2.414-4.24 1.055l-2.445-2.444a.3.3 0 0 0-.424 0l-2.661 2.66a.75.75 0 1 1-1.06-1.06l2.66-2.66a.3.3 0 0 0 0-.425l-2.445-2.445c-1.359-1.36-.782-3.678 1.056-4.241l.815-.25a.3.3 0 0 0 .124-.5L1.22 2.28a.75.75 0 0 1 0-1.06m3.064 6.808a1.05 1.05 0 0 0-.434 1.746l6.374 6.374a1.05 1.05 0 0 0 1.746-.434l.577-1.881a.3.3 0 0 0-.075-.3L6.465 7.526a.3.3 0 0 0-.3-.075zm6.253-5.638a2.55 2.55 0 0 1 3.606 0l3.465 3.465a2.55 2.55 0 0 1 0 3.606l-2.28 2.281a.3.3 0 0 1-.425 0l-.637-.637a.3.3 0 0 1 0-.425l2.282-2.28a1.05 1.05 0 0 0 0-1.484l-3.466-3.465a1.05 1.05 0 0 0-1.484 0l-2.281 2.28a.3.3 0 0 1-.425 0l-.636-.636a.3.3 0 0 1 0-.424z"/></svg>
